X:054
L:1/8
M:6/8
K:G
g | dBG GAB | E2 E E2 c | AFD DEF | G2 G G2 g |
dBG Bcd | E2 E E2 c | AFD DEF | G3 G2 ||
(g/2a/2) | bgb afd | efg gfe | dBg dBG | AFD D2 (g/2a/2) |
bgb afd | efg gfe | faf ge^c | d2 d de=f |
ece dBd | cac BgB | Ace dBG | FAF DEF |

